!! 00000] TT[00
!! NN
!!!OTL: Xian hua
!!!ARE: Asia, China,ÿHebei, Jizhong
!! Ethnic Group: Han
!! IV, 29
!!!SCT: C0369
!!!YEM: Copyright 1995, estate of Helmut Schaffrath.
**kern
*ICvox
*Ivox
*M2/4
*k[b-]
*F:
{4.dd
8cc
=1
4.dd
8ff
=2
8.a
16cc
8.a
16cc
=3
8dd
8cc
8dd
8r}
=4
{8cc
4cc
8a
=5
4g
8e
8g
=6
4.cc
8e
=7
4.d
8r}
=8
{4.dd
8cc
=9
4.dd
8ff
=10
8.a
16cc
8.a
16cc
=11
8dd
8cc
8dd
8r}
=12
{8cc
4cc
8a
=13
4g
8e
8g
=14
4.cc
8e
=15
4.d
8r}
=16
{8.a
16g
8f
8g
=17
8a
8g
4a}
=18
{4.cc
8e
=19
4.d
8r}
=20
{8.a
16g
8f
8g
=21
8a
8g
4a}
=22
{4.cc
8e
=23
4.d
8r}
=24
{8dd
8ee
4a
=25
8dd
8ee
4a
=26
8.dd
16cc
8a
8cc
=27
8dd
8cc
4dd}
=28
{8cc
4cc
8a
=29
4g
8e
8g
=30
4.cc
8e
=31
2d}
==
!!!AGN: Xiaodiao, Dui hua. Xin minge. Xushu laodong shenghuo
!! sehr original; +++ Grundton wechselt von F nach C!! ++++ Alle 7 klingen
!!    tiefer,  mit Pfeil nach unten in der Vorlage notiert ).
!!!ONB: ESAC (Essen Associative Code) Database: CHINA
!!!AMT: simple duple
!!!AIN: vox
!!!EED: Helmut Schaffrath
!!!EEV: 1.0
*-
